icons/insert/image.svg

<?xml version="1.0" encoding="UTF-8" standalone="no"?>
<svg
   height="24"
   id="svg7384"
   version="1.1"
   width="24"
   sodipodi:docname="image.svg"
   inkscape:version="1.1 (ce6663b3b7, 2021-05-25)"
   xmlns:inkscape="http://www.inkscape.org/namespaces/inkscape"
   xmlns:sodipodi="http://sodipodi.sourceforge.net/DTD/sodipodi-0.dtd"
   xmlns="http://www.w3.org/2000/svg"
   xmlns:svg="http://www.w3.org/2000/svg"
   xmlns:rdf="http://www.w3.org/1999/02/22-rdf-syntax-ns#"
   xmlns:cc="http://creativecommons.org/ns#"
   xmlns:dc="http://purl.org/dc/elements/1.1/">
  <sodipodi:namedview
     id="namedview24"
     pagecolor="#ffffff"
     bordercolor="#666666"
     borderopacity="1.0"
     inkscape:pageshadow="2"
     inkscape:pageopacity="0.0"
     inkscape:pagecheckerboard="0"
     showgrid="true"
     inkscape:snap-page="true"
     inkscape:zoom="19.79899"
     inkscape:cx="5.0255089"
     inkscape:cy="19.697974"
     inkscape:window-width="1920"
     inkscape:window-height="1043"
     inkscape:window-x="1920"
     inkscape:window-y="0"
     inkscape:window-maximized="1"
     inkscape:current-layer="svg7384">
    <inkscape:grid
       type="xygrid"
       id="grid1105" />
  </sodipodi:namedview>
  <metadata
     id="metadata20854">
    <rdf:RDF>
      <cc:Work
         rdf:about="">
        <dc:format>image/svg+xml</dc:format>
        <dc:type
           rdf:resource="http://purl.org/dc/dcmitype/StillImage" />
      </cc:Work>
    </rdf:RDF>
  </metadata>
  <defs
     id="defs7386">
    <linearGradient
       id="linearGradient5606"
       inkscape:swatch="solid">
      <stop
         id="stop5608"
         offset="0"
         style="stop-color:#000000;stop-opacity:1;" />
    </linearGradient>
    <linearGradient
       id="linearGradient4526"
       inkscape:swatch="solid">
      <stop
         id="stop4528"
         offset="0"
         style="stop-color:#ffffff;stop-opacity:1;" />
    </linearGradient>
    <linearGradient
       id="linearGradient3600-4"
       inkscape:swatch="gradient">
      <stop
         id="stop3602-7"
         offset="0"
         style="stop-color:#f4f4f4;stop-opacity:1" />
      <stop
         id="stop3604-6"
         offset="1"
         style="stop-color:#dbdbdb;stop-opacity:1" />
    </linearGradient>
  </defs>
  <g
     id="layer9"
     label="status"
     style="display:inline;stroke-width:0.8"
     transform="matrix(1.25,0,0,1.25,-514.25025,185.75)" />
  <g
     id="layer2"
     style="display:inline;stroke-width:0.8"
     transform="matrix(1.25,0,0,1.25,-213,-273)" />
  <g
     id="layer4"
     style="display:inline;stroke-width:0.8"
     transform="matrix(1.25,0,0,1.25,-213,-273)" />
  <g
     id="g1812"
     style="display:inline;stroke-width:0.8"
     transform="matrix(1.25,0,0,1.25,-213,-273)" />
  <g
     id="g6217"
     style="display:inline;stroke-width:0.8"
     transform="matrix(1.25,0,0,1.25,-213,-273)" />
  <g
     id="layer3"
     style="display:inline;stroke-width:0.8"
     transform="matrix(1.25,0,0,1.25,-213,-273)" />
  <g
     id="g1833"
     style="display:inline;stroke-width:0.8"
     transform="matrix(1.25,0,0,1.25,-213,-273)" />
  <g
     id="layer1"
     style="display:inline;stroke-width:0.8"
     transform="matrix(1.25,0,0,1.25,-213,-272.62431)">
    <path
       d="m 182.1818,232.00028 -4.36361,0.001 c 0.30341,0.66365 0.64289,1.33926 1.01795,2.02713 0.37595,0.68141 0.76372,1.33869 1.16367,1.97142 0.39196,-0.63273 0.77602,-1.29001 1.15197,-1.97142 0.37527,-0.68825 0.71852,-1.36424 1.03003,-2.02824 z"
       id="path6606"
       style="color:#000000;display:inline;overflow:visible;visibility:visible;opacity:1;fill:#808080;fill-opacity:1;fill-rule:nonzero;stroke:none;stroke-width:0.599882;marker:none;enable-background:accumulate" />
    <path
       d="m 183,223 c -0.55229,0 -1,0.44771 -1,1 0,0.55229 0.44771,1 1,1 0.55229,0 1,-0.44771 1,-1 0,-0.55229 -0.44771,-1 -1,-1 z"
       id="path6598"
       style="color:#000000;display:inline;overflow:visible;visibility:visible;fill:#808080;fill-opacity:1;fill-rule:nonzero;stroke:none;stroke-width:4.79905;marker:none;enable-background:accumulate" />
    <path
       d="m 178.25,223.875 -2.25,4.125 h 2.03863 3.96137 l -1.875,-3.375 -0.75,1.125 z"
       id="path6602"
       style="color:#000000;display:inline;overflow:visible;visibility:visible;fill:#808080;fill-opacity:1;fill-rule:nonzero;stroke:none;stroke-width:4.79905;marker:none;enable-background:accumulate" />
    <path
       d="m 178,221 c -1.25,0 -2.17476,-0.0444 -2.92969,0.375 -0.37746,0.2097 -0.67538,0.56341 -0.84179,1.00391 -0.16642,0.4405 -0.22852,0.96276 -0.22852,1.62109 v 4 c 0,0.65833 0.0621,1.18059 0.22852,1.62109 0.16641,0.4405 0.46433,0.79421 0.84179,1.00391 0.75493,0.4194 1.67969,0.375 2.92969,0.375 h 4 c 1.25,0 2.17476,0.0444 2.92969,-0.375 0.37746,-0.2097 0.67538,-0.56341 0.84179,-1.00391 0.16642,-0.4405 0.22852,-0.96276 0.22852,-1.62109 v -4 c 0,-0.65833 -0.0621,-1.18059 -0.22852,-1.62109 -0.16641,-0.4405 -0.46433,-0.79421 -0.84179,-1.00391 -0.75493,-0.4194 -1.67969,-0.375 -2.92969,-0.375 z m 0,1 h 4 c 1.25,0 2.07524,0.0444 2.44531,0.25 0.18504,0.1028 0.29337,0.21784 0.39258,0.48047 0.0992,0.26262 0.16211,0.67786 0.16211,1.26953 v 4 c 0,0.43588 -0.042,0.7461 -0.0996,1 h -9.80078 c -0.0576,-0.2539 -0.0996,-0.56412 -0.0996,-1 v -4 c 0,-0.59167 0.0629,-1.00691 0.16211,-1.26953 0.0992,-0.26263 0.20754,-0.37767 0.39258,-0.48047 0.37007,-0.2056 1.19531,-0.25 2.44531,-0.25 z"
       id="path3150"
       style="color:#000000;font-style:normal;font-variant:normal;font-weight:normal;font-stretch:normal;font-size:medium;line-height:normal;font-family:sans-serif;font-variant-ligatures:normal;font-variant-position:normal;font-variant-caps:normal;font-variant-numeric:normal;font-variant-alternates:normal;font-feature-settings:normal;text-indent:0;text-align:start;text-decoration:none;text-decoration-line:none;text-decoration-style:solid;text-decoration-color:#000000;letter-spacing:normal;word-spacing:normal;text-transform:none;writing-mode:lr-tb;direction:ltr;text-orientation:mixed;dominant-baseline:auto;baseline-shift:baseline;text-anchor:start;white-space:normal;shape-padding:0;clip-rule:nonzero;display:inline;overflow:visible;visibility:visible;opacity:1;isolation:auto;mix-blend-mode:normal;color-interpolation:sRGB;color-interpolation-filters:linearRGB;solid-color:#000000;solid-opacity:1;vector-effect:none;fill:#808080;fill-opacity:1;fill-rule:nonzero;stroke:none;stroke-width:0.8px;stroke-linecap:butt;stroke-linejoin:miter;stroke-miterlimit:4;stroke-dasharray:none;stroke-dashoffset:0;stroke-opacity:1;color-rendering:auto;image-rendering:auto;shape-rendering:auto;text-rendering:auto;enable-background:accumulate" />
  </g>
</svg>

<?xml version='1.0' encoding='UTF-8' standalone='no'?>
<svg xmlns:cc='http://creativecommons.org/ns#' xmlns:dc='http://purl.org/dc/elements/1.1/' height='16' id='svg7384' xmlns:osb='http://www.openswatchbook.org/uri/2009/osb' xmlns:rdf='http://www.w3.org/1999/02/22-rdf-syntax-ns#' xmlns:svg='http://www.w3.org/2000/svg' version='1.1' width='16' xmlns='http://www.w3.org/2000/svg'>
  <metadata id='metadata20854'>
    <rdf:RDF>
      <cc:Work rdf:about=''>
        <dc:title/>
        <dc:format>image/svg+xml</dc:format>
        <dc:type rdf:resource='http://purl.org/dc/dcmitype/StillImage'/>
      </cc:Work>
    </rdf:RDF>
  </metadata>
  <defs id='defs7386'>
    <linearGradient id='linearGradient5606' osb:paint='solid'>
      <stop id='stop5608' offset='0' style='stop-color:#000000;stop-opacity:1;'/>
    </linearGradient>
    <linearGradient id='linearGradient4526' osb:paint='solid'>
      <stop id='stop4528' offset='0' style='stop-color:#ffffff;stop-opacity:1;'/>
    </linearGradient>
    <linearGradient id='linearGradient3600-4' osb:paint='gradient'>
      <stop id='stop3602-7' offset='0' style='stop-color:#f4f4f4;stop-opacity:1'/>
      <stop id='stop3604-6' offset='1' style='stop-color:#dbdbdb;stop-opacity:1'/>
    </linearGradient>
  </defs>
  <g id='layer9' label='status' style='display:inline' transform='translate(-413.0002,147)'/>
  <g id='layer2' style='display:inline' transform='translate(-172,-220)'/>
  <g id='layer4' style='display:inline' transform='translate(-172,-220)'/>
  <g id='g1812' style='display:inline' transform='translate(-172,-220)'/>
  <g id='g6217' style='display:inline' transform='translate(-172,-220)'/>
  <g id='layer3' style='display:inline' transform='translate(-172,-220)'/>
  <g id='g1833' style='display:inline' transform='translate(-172,-220)'/>
  <g id='layer1' style='display:inline' transform='translate(-172,-220)'>
    <path d='m 182.1818,232.00028 -4.36361,0.001 c 0.30341,0.66365 0.64289,1.33926 1.01795,2.02713 0.37595,0.68141 0.76372,1.33869 1.16367,1.97142 0.39196,-0.63273 0.77602,-1.29001 1.15197,-1.97142 0.37527,-0.68825 0.71852,-1.36424 1.03003,-2.02824 z' id='path6606' style='color:#000000;display:inline;overflow:visible;visibility:visible;opacity:1;fill:#808080;fill-opacity:1;fill-rule:nonzero;stroke:none;stroke-width:0.74985164;marker:none;enable-background:accumulate'/>
    
    <path d='m 183,223 c -0.55229,0 -1,0.44771 -1,1 0,0.55229 0.44771,1 1,1 0.55229,0 1,-0.44771 1,-1 0,-0.55229 -0.44771,-1 -1,-1 z' id='path6598' style='color:#000000;display:inline;overflow:visible;visibility:visible;fill:#808080;fill-opacity:1;fill-rule:nonzero;stroke:none;stroke-width:5.99881363;marker:none;enable-background:accumulate'/>
    <path d='M 178.25,223.875 176,228 H 178.03863 182 l -1.875,-3.375 -0.75,1.125 z' id='path6602' style='color:#000000;display:inline;overflow:visible;visibility:visible;fill:#808080;fill-opacity:1;fill-rule:nonzero;stroke:none;stroke-width:5.99881363;marker:none;enable-background:accumulate'/>
    <path d='m 178,221 c -1.25,0 -2.17476,-0.0444 -2.92969,0.375 -0.37746,0.2097 -0.67538,0.56341 -0.84179,1.00391 C 174.0621,222.81941 174,223.34167 174,224 v 4 c 0,0.65833 0.0621,1.18059 0.22852,1.62109 0.16641,0.4405 0.46433,0.79421 0.84179,1.00391 C 175.82524,231.0444 176.75,231 178,231 h 4 c 1.25,0 2.17476,0.0444 2.92969,-0.375 0.37746,-0.2097 0.67538,-0.56341 0.84179,-1.00391 C 185.9379,229.18059 186,228.65833 186,228 v -4 c 0,-0.65833 -0.0621,-1.18059 -0.22852,-1.62109 -0.16641,-0.4405 -0.46433,-0.79421 -0.84179,-1.00391 C 184.17476,220.9556 183.25,221 182,221 Z m 0,1 h 4 c 1.25,0 2.07524,0.0444 2.44531,0.25 0.18504,0.1028 0.29337,0.21784 0.39258,0.48047 C 184.9371,222.99309 185,223.40833 185,224 v 4 c 0,0.43588 -0.042,0.7461 -0.0996,1 h -9.80078 C 175.04197,228.7461 175,228.43588 175,228 v -4 c 0,-0.59167 0.0629,-1.00691 0.16211,-1.26953 0.0992,-0.26263 0.20754,-0.37767 0.39258,-0.48047 C 175.92476,222.0444 176.75,222 178,222 Z' id='path3150' style='color:#000000;font-style:normal;font-variant:normal;font-weight:normal;font-stretch:normal;font-size:medium;line-height:normal;font-family:sans-serif;font-variant-ligatures:normal;font-variant-position:normal;font-variant-caps:normal;font-variant-numeric:normal;font-variant-alternates:normal;font-feature-settings:normal;text-indent:0;text-align:start;text-decoration:none;text-decoration-line:none;text-decoration-style:solid;text-decoration-color:#000000;letter-spacing:normal;word-spacing:normal;text-transform:none;writing-mode:lr-tb;direction:ltr;text-orientation:mixed;dominant-baseline:auto;baseline-shift:baseline;text-anchor:start;white-space:normal;shape-padding:0;clip-rule:nonzero;display:inline;overflow:visible;visibility:visible;opacity:1;isolation:auto;mix-blend-mode:normal;color-interpolation:sRGB;color-interpolation-filters:linearRGB;solid-color:#000000;solid-opacity:1;vector-effect:none;fill:#808080;fill-opacity:1;fill-rule:nonzero;stroke:none;stroke-width:1px;stroke-linecap:butt;stroke-linejoin:miter;stroke-miterlimit:4;stroke-dasharray:none;stroke-dashoffset:0;stroke-opacity:1;color-rendering:auto;image-rendering:auto;shape-rendering:auto;text-rendering:auto;enable-background:accumulate'/>
  </g>
</svg>
